X:331
%%etbk:tnset id:100,pos:2,rep:3x,ant:
%%etbk:wsite http://www.thesession.org/tunes/display/92
%%etbk:color #ffccbf
%%etbk:pldat 2016-06-21T15:33,2016-05-04T16:16,2016-03-11T15:58,2016-03-08T16:39,2016-03-07T18:19,2016-02-08T18:22,2015-11-04T16:41,2015-10-28T16:00,2015-10-26T18:47,2015-10-22T18:51,2015-10-08T18:41,2015-06-16T16:51,2015-03-13T18:11,2015-03-09T18:29,2015-03-04T16:38,2015-02-11T17:22,2014-11-05T18:50,2014-11-04T16:02,2014-11-02T13:53,2014-08-20T18:33,2014-08-19T18:42,2014-06-24T18:39,2014-03-05T19:12,2014-03-01T17:22,2014-02-24T18:08,2013-10-29T15:47,2013-10-27T14:44,2013-10-17T19:21,2013-10-13T15:59,2013-10-08T16:32
T: Irish Washerwoman, The
Z: Piano Box Version by Martin Fleischmann
H: Created 2013-02-19 /  Last Modified 2015-03-04
M: 6/8
L: 1/8
R: jig
K: Gmaj
|: "G"{d}!2!B!1!G!2!G !1!D!2!G!1!G | !2!B!1!G!2!B !4!dcB | "D"!3!c!1!A!2!A !1!D!2!A!1!A | !3!cAc !5!edc |
"G"!2!B!1!G!2!G !1!D!2!G!1!G | !2!B!1!G!2!B !4!dcB | "D"!3!cBc !1!A!4!dc | "G"!2!B!1!GG G3:|
!3!ga |: "G"!5!b!3!gg !1!d!3!gg | !5!bgb bag | "D"!4!a!2!ff !1!d!2!ff | !4!afa agf |
"C"!1!e!3!gg !1!d!3!gg | !1!c!3!gg !1!B!3!gg | "D"!1!cz!3!c !1!A!4!dc | "G"!2!B!1!GG G3:|


